doc/_static/Bus.svg

<?xml version="1.0" encoding="UTF-8"?>
<svg xmlns="http://www.w3.org/2000/svg" xmlns:xlink="http://www.w3.org/1999/xlink" width="57.091pt" height="104.079pt" viewBox="0 0 57.091 104.079" version="1.1">
<defs>
<g>
<symbol overflow="visible" id="glyph0-0">
<path style="stroke:none;" d="M 5.5625 -0.296875 C 5.5625 -0.0976562 5.453125 0 5.234375 0 L 0.765625 0 C 0.660156 0 0.585938 -0.0195312 0.546875 -0.0625 C 0.515625 -0.101562 0.5 -0.164062 0.5 -0.25 L 0.5 -6.84375 C 0.5 -7 0.5625 -7.078125 0.6875 -7.078125 L 5.390625 -7.078125 C 5.503906 -7.078125 5.5625 -7.007812 5.5625 -6.875 Z M 5.046875 -0.734375 L 5.046875 -6.40625 C 5.046875 -6.519531 4.992188 -6.578125 4.890625 -6.578125 L 1.171875 -6.578125 C 1.066406 -6.578125 1.015625 -6.515625 1.015625 -6.390625 L 1.015625 -0.703125 C 1.015625 -0.640625 1.03125 -0.585938 1.0625 -0.546875 C 1.09375 -0.515625 1.15625 -0.5 1.25 -0.5 L 4.765625 -0.5 C 4.953125 -0.5 5.046875 -0.578125 5.046875 -0.734375 Z M 4.765625 -0.28125 L 0.703125 -6.671875 L 1.21875 -6.9375 L 5.359375 -0.328125 Z M 4.765625 -0.28125 "/>
</symbol>
<symbol overflow="visible" id="glyph0-1">
<path style="stroke:none;" d="M 0.859375 -7.078125 L 3.390625 -0.875 L 5.90625 -7.078125 L 6.640625 -7.078125 L 3.703125 0 L 3.078125 0 L 0.125 -7.078125 Z M 0.859375 -7.078125 "/>
</symbol>
<symbol overflow="visible" id="glyph1-0">
<path style="stroke:none;" d="M 4.453125 -0.234375 C 4.453125 -0.078125 4.363281 0 4.1875 0 L 0.609375 0 C 0.523438 0 0.46875 -0.015625 0.4375 -0.046875 C 0.40625 -0.078125 0.390625 -0.128906 0.390625 -0.203125 L 0.390625 -5.46875 C 0.390625 -5.59375 0.441406 -5.65625 0.546875 -5.65625 L 4.296875 -5.65625 C 4.398438 -5.65625 4.453125 -5.597656 4.453125 -5.484375 Z M 4.03125 -0.59375 L 4.03125 -5.109375 C 4.03125 -5.210938 3.988281 -5.265625 3.90625 -5.265625 L 0.9375 -5.265625 C 0.851562 -5.265625 0.8125 -5.210938 0.8125 -5.109375 L 0.8125 -0.5625 C 0.8125 -0.507812 0.820312 -0.46875 0.84375 -0.4375 C 0.875 -0.40625 0.925781 -0.390625 1 -0.390625 L 3.8125 -0.390625 C 3.957031 -0.390625 4.03125 -0.457031 4.03125 -0.59375 Z M 3.8125 -0.21875 L 0.5625 -5.328125 L 0.984375 -5.546875 L 4.28125 -0.265625 Z M 3.8125 -0.21875 "/>
</symbol>
<symbol overflow="visible" id="glyph1-1">
<path style="stroke:none;" d="M 0.265625 -1.1875 C 0.265625 -1.445312 0.335938 -1.671875 0.484375 -1.859375 C 0.628906 -2.054688 0.832031 -2.207031 1.09375 -2.3125 C 1.363281 -2.414062 1.671875 -2.46875 2.015625 -2.46875 C 2.210938 -2.46875 2.421875 -2.445312 2.640625 -2.40625 C 2.859375 -2.375 3.054688 -2.328125 3.234375 -2.265625 L 3.234375 -2.625 C 3.234375 -2.96875 3.128906 -3.242188 2.921875 -3.453125 C 2.710938 -3.660156 2.425781 -3.765625 2.0625 -3.765625 C 1.832031 -3.765625 1.609375 -3.722656 1.390625 -3.640625 C 1.179688 -3.554688 0.957031 -3.4375 0.71875 -3.28125 L 0.515625 -3.671875 C 0.785156 -3.847656 1.050781 -3.984375 1.3125 -4.078125 C 1.570312 -4.171875 1.835938 -4.21875 2.109375 -4.21875 C 2.617188 -4.21875 3.019531 -4.070312 3.3125 -3.78125 C 3.613281 -3.488281 3.765625 -3.085938 3.765625 -2.578125 L 3.765625 -0.65625 C 3.765625 -0.582031 3.78125 -0.523438 3.8125 -0.484375 C 3.84375 -0.453125 3.894531 -0.4375 3.96875 -0.4375 L 3.96875 0 C 3.90625 0.0078125 3.851562 0.015625 3.8125 0.015625 C 3.769531 0.0234375 3.738281 0.0234375 3.71875 0.015625 C 3.582031 0.015625 3.476562 -0.0234375 3.40625 -0.109375 C 3.34375 -0.191406 3.3125 -0.273438 3.3125 -0.359375 L 3.296875 -0.671875 C 3.109375 -0.429688 2.863281 -0.242188 2.5625 -0.109375 C 2.269531 0.015625 1.972656 0.078125 1.671875 0.078125 C 1.398438 0.078125 1.15625 0.0195312 0.9375 -0.09375 C 0.726562 -0.207031 0.5625 -0.359375 0.4375 -0.546875 C 0.320312 -0.742188 0.265625 -0.957031 0.265625 -1.1875 Z M 3.046875 -0.875 C 3.097656 -0.945312 3.140625 -1.015625 3.171875 -1.078125 C 3.210938 -1.148438 3.234375 -1.21875 3.234375 -1.28125 L 3.234375 -1.875 C 3.046875 -1.945312 2.851562 -2 2.65625 -2.03125 C 2.46875 -2.070312 2.273438 -2.09375 2.078125 -2.09375 C 1.691406 -2.09375 1.378906 -2.015625 1.140625 -1.859375 C 0.898438 -1.710938 0.78125 -1.503906 0.78125 -1.234375 C 0.78125 -1.078125 0.816406 -0.929688 0.890625 -0.796875 C 0.972656 -0.660156 1.09375 -0.546875 1.25 -0.453125 C 1.40625 -0.367188 1.585938 -0.328125 1.796875 -0.328125 C 2.054688 -0.328125 2.296875 -0.378906 2.515625 -0.484375 C 2.742188 -0.585938 2.921875 -0.71875 3.046875 -0.875 Z M 3.046875 -0.875 "/>
</symbol>
<symbol overflow="visible" id="glyph1-2">
<path style="stroke:none;" d="M 2.625 0.078125 C 2.300781 0.078125 2 -0.00390625 1.71875 -0.171875 C 1.445312 -0.335938 1.234375 -0.550781 1.078125 -0.8125 L 1.078125 0 L 0.59375 0 L 0.59375 -5.8125 L 1.140625 -5.8125 L 1.140625 -3.28125 C 1.328125 -3.5625 1.550781 -3.785156 1.8125 -3.953125 C 2.070312 -4.128906 2.375 -4.21875 2.71875 -4.21875 C 3.007812 -4.21875 3.269531 -4.15625 3.5 -4.03125 C 3.726562 -3.914062 3.925781 -3.753906 4.09375 -3.546875 C 4.257812 -3.347656 4.382812 -3.117188 4.46875 -2.859375 C 4.550781 -2.597656 4.59375 -2.332031 4.59375 -2.0625 C 4.59375 -1.769531 4.539062 -1.492188 4.4375 -1.234375 C 4.34375 -0.984375 4.207031 -0.757812 4.03125 -0.5625 C 3.851562 -0.363281 3.644531 -0.207031 3.40625 -0.09375 C 3.164062 0.0195312 2.90625 0.078125 2.625 0.078125 Z M 2.5 -0.390625 C 2.726562 -0.390625 2.9375 -0.4375 3.125 -0.53125 C 3.3125 -0.625 3.472656 -0.75 3.609375 -0.90625 C 3.753906 -1.0625 3.863281 -1.238281 3.9375 -1.4375 C 4.007812 -1.644531 4.046875 -1.851562 4.046875 -2.0625 C 4.046875 -2.351562 3.984375 -2.628906 3.859375 -2.890625 C 3.734375 -3.148438 3.5625 -3.359375 3.34375 -3.515625 C 3.125 -3.671875 2.863281 -3.75 2.5625 -3.75 C 2.351562 -3.75 2.15625 -3.695312 1.96875 -3.59375 C 1.789062 -3.5 1.628906 -3.375 1.484375 -3.21875 C 1.347656 -3.0625 1.234375 -2.890625 1.140625 -2.703125 L 1.140625 -1.421875 C 1.160156 -1.273438 1.210938 -1.140625 1.296875 -1.015625 C 1.390625 -0.890625 1.503906 -0.78125 1.640625 -0.6875 C 1.773438 -0.601562 1.914062 -0.53125 2.0625 -0.46875 C 2.21875 -0.414062 2.363281 -0.390625 2.5 -0.390625 Z M 2.5 -0.390625 "/>
</symbol>
<symbol overflow="visible" id="glyph1-3">
<path style="stroke:none;" d="M 2.40625 0.078125 C 2.09375 0.078125 1.8125 0.0195312 1.5625 -0.09375 C 1.3125 -0.207031 1.09375 -0.363281 0.90625 -0.5625 C 0.71875 -0.769531 0.570312 -1.003906 0.46875 -1.265625 C 0.363281 -1.523438 0.3125 -1.800781 0.3125 -2.09375 C 0.3125 -2.476562 0.398438 -2.832031 0.578125 -3.15625 C 0.753906 -3.488281 1 -3.75 1.3125 -3.9375 C 1.625 -4.125 1.984375 -4.21875 2.390625 -4.21875 C 2.773438 -4.21875 3.113281 -4.128906 3.40625 -3.953125 C 3.707031 -3.773438 3.929688 -3.535156 4.078125 -3.234375 L 3.546875 -3.0625 C 3.429688 -3.28125 3.269531 -3.445312 3.0625 -3.5625 C 2.851562 -3.6875 2.617188 -3.75 2.359375 -3.75 C 2.085938 -3.75 1.835938 -3.675781 1.609375 -3.53125 C 1.378906 -3.382812 1.195312 -3.1875 1.0625 -2.9375 C 0.925781 -2.6875 0.859375 -2.40625 0.859375 -2.09375 C 0.859375 -1.78125 0.925781 -1.492188 1.0625 -1.234375 C 1.207031 -0.984375 1.390625 -0.78125 1.609375 -0.625 C 1.835938 -0.46875 2.09375 -0.390625 2.375 -0.390625 C 2.550781 -0.390625 2.722656 -0.421875 2.890625 -0.484375 C 3.054688 -0.554688 3.203125 -0.644531 3.328125 -0.75 C 3.453125 -0.863281 3.535156 -0.984375 3.578125 -1.109375 L 4.125 -0.953125 C 4.050781 -0.753906 3.925781 -0.578125 3.75 -0.421875 C 3.570312 -0.265625 3.367188 -0.140625 3.140625 -0.046875 C 2.910156 0.0351562 2.664062 0.078125 2.40625 0.078125 Z M 2.40625 0.078125 "/>
</symbol>
<symbol overflow="visible" id="glyph1-4">
<path style="stroke:none;" d="M 4.09375 0 L 3.546875 0 L 3.546875 -2.3125 C 3.546875 -2.800781 3.472656 -3.160156 3.328125 -3.390625 C 3.179688 -3.617188 2.957031 -3.734375 2.65625 -3.734375 C 2.4375 -3.734375 2.222656 -3.679688 2.015625 -3.578125 C 1.816406 -3.472656 1.640625 -3.332031 1.484375 -3.15625 C 1.328125 -2.976562 1.210938 -2.773438 1.140625 -2.546875 L 1.140625 0 L 0.59375 0 L 0.59375 -4.15625 L 1.09375 -4.15625 L 1.09375 -3.21875 C 1.207031 -3.414062 1.351562 -3.585938 1.53125 -3.734375 C 1.707031 -3.890625 1.910156 -4.007812 2.140625 -4.09375 C 2.367188 -4.175781 2.609375 -4.21875 2.859375 -4.21875 C 3.085938 -4.21875 3.28125 -4.175781 3.4375 -4.09375 C 3.59375 -4.007812 3.71875 -3.890625 3.8125 -3.734375 C 3.90625 -3.578125 3.972656 -3.390625 4.015625 -3.171875 C 4.066406 -2.953125 4.09375 -2.707031 4.09375 -2.4375 Z M 4.09375 0 "/>
</symbol>
</g>
<clipPath id="clip1">
  <path d="M 0 0 L 57.089844 0 L 57.089844 104.078125 L 0 104.078125 Z M 0 0 "/>
</clipPath>
<clipPath id="clip2">
  <path d="M 0 102 L 57.089844 102 L 57.089844 103 L 0 103 Z M 0 102 "/>
</clipPath>
<clipPath id="clip3">
  <path d="M 21 95 L 36 95 L 36 104.078125 L 21 104.078125 Z M 21 95 "/>
</clipPath>
<clipPath id="clip4">
  <path d="M 0 73 L 57.089844 73 L 57.089844 75 L 0 75 Z M 0 73 "/>
</clipPath>
<clipPath id="clip5">
  <path d="M 0 45 L 57.089844 45 L 57.089844 47 L 0 47 Z M 0 45 "/>
</clipPath>
<clipPath id="clip6">
  <path d="M 0 17 L 57.089844 17 L 57.089844 18 L 0 18 Z M 0 17 "/>
</clipPath>
</defs>
<g id="surface1">
<g clip-path="url(#clip1)" clip-rule="nonzero">
<path style=" stroke:none;fill-rule:nonzero;fill:rgb(100%,100%,100%);fill-opacity:1;" d="M 0 104.078125 L 0 0 L 57.09375 0 L 57.09375 104.078125 Z M 0 104.078125 "/>
</g>
<g style="fill:rgb(0%,0%,0%);fill-opacity:1;">
  <use xlink:href="#glyph0-1" x="22.742" y="10.394"/>
</g>
<g style="fill:rgb(0%,0%,0%);fill-opacity:1;">
  <use xlink:href="#glyph1-1" x="29.507" y="11.888"/>
</g>
<path style="fill:none;stroke-width:0.398;stroke-linecap:butt;stroke-linejoin:miter;stroke:rgb(0%,0%,0%);stroke-opacity:1;stroke-miterlimit:10;" d="M 0.0001875 -0.00028125 L 11.605656 -0.00028125 " transform="matrix(1,0,0,-1,22.742,13.363)"/>
<g style="fill:rgb(0%,0%,0%);fill-opacity:1;">
  <use xlink:href="#glyph0-1" x="22.456" y="37.848"/>
</g>
<g style="fill:rgb(0%,0%,0%);fill-opacity:1;">
  <use xlink:href="#glyph1-2" x="29.22" y="40.235"/>
</g>
<path style="fill:none;stroke-width:0.398;stroke-linecap:butt;stroke-linejoin:miter;stroke:rgb(0%,0%,0%);stroke-opacity:1;stroke-miterlimit:10;" d="M 0.00103125 -0.0019375 L 12.180719 -0.0019375 " transform="matrix(1,0,0,-1,22.456,41.709)"/>
<g style="fill:rgb(0%,0%,0%);fill-opacity:1;">
  <use xlink:href="#glyph0-1" x="22.727" y="67.087"/>
</g>
<g style="fill:rgb(0%,0%,0%);fill-opacity:1;">
  <use xlink:href="#glyph1-3" x="29.491" y="68.581"/>
</g>
<path style="fill:none;stroke-width:0.398;stroke-linecap:butt;stroke-linejoin:miter;stroke:rgb(0%,0%,0%);stroke-opacity:1;stroke-miterlimit:10;" d="M -0.0004375 0.0003125 L 11.636281 0.0003125 " transform="matrix(1,0,0,-1,22.727,70.055)"/>
<g style="fill:rgb(0%,0%,0%);fill-opacity:1;">
  <use xlink:href="#glyph0-1" x="22.591" y="95.513"/>
</g>
<g style="fill:rgb(0%,0%,0%);fill-opacity:1;">
  <use xlink:href="#glyph1-4" x="29.356" y="97.007"/>
</g>
<path style="fill:none;stroke-width:0.398;stroke-linecap:butt;stroke-linejoin:miter;stroke:rgb(0%,0%,0%);stroke-opacity:1;stroke-miterlimit:10;" d="M -0.00115625 -0.00034375 L 11.909 -0.00034375 " transform="matrix(1,0,0,-1,22.591,98.402)"/>
<g clip-path="url(#clip2)" clip-rule="nonzero">
<path style="fill:none;stroke-width:0.3985;stroke-linecap:butt;stroke-linejoin:miter;stroke:rgb(0%,0%,0%);stroke-opacity:1;stroke-miterlimit:10;" d="M 0.00021875 -0.00053125 L 14.172094 -0.00053125 M 14.172094 -0.00053125 L 56.695531 -0.00053125 " transform="matrix(1,0,0,-1,0.199,102.519)"/>
</g>
<path style=" stroke:none;fill-rule:nonzero;fill:rgb(0%,0%,0%);fill-opacity:1;" d="M 29.90625 102.519531 C 29.90625 101.769531 29.296875 101.160156 28.546875 101.160156 C 27.792969 101.160156 27.183594 101.769531 27.183594 102.519531 C 27.183594 103.269531 27.792969 103.878906 28.546875 103.878906 C 29.296875 103.878906 29.90625 103.269531 29.90625 102.519531 Z M 29.90625 102.519531 "/>
<g clip-path="url(#clip3)" clip-rule="nonzero">
<path style="fill:none;stroke-width:0.3985;stroke-linecap:butt;stroke-linejoin:miter;stroke:rgb(0%,0%,0%);stroke-opacity:1;stroke-miterlimit:10;" d="M 29.70725 -0.00053125 C 29.70725 0.749469 29.097875 1.358844 28.347875 1.358844 C 27.593969 1.358844 26.984594 0.749469 26.984594 -0.00053125 C 26.984594 -0.750531 27.593969 -1.359906 28.347875 -1.359906 C 29.097875 -1.359906 29.70725 -0.750531 29.70725 -0.00053125 Z M 29.70725 -0.00053125 " transform="matrix(1,0,0,-1,0.199,102.519)"/>
</g>
<g clip-path="url(#clip4)" clip-rule="nonzero">
<path style="fill:none;stroke-width:0.3985;stroke-linecap:butt;stroke-linejoin:miter;stroke:rgb(0%,0%,0%);stroke-opacity:1;stroke-miterlimit:10;" d="M 0.00021875 28.347125 L 14.172094 28.347125 M 14.172094 28.347125 L 56.695531 28.347125 " transform="matrix(1,0,0,-1,0.199,102.519)"/>
</g>
<path style="fill-rule:nonzero;fill:rgb(0%,0%,0%);fill-opacity:1;stroke-width:0.3985;stroke-linecap:butt;stroke-linejoin:miter;stroke:rgb(0%,0%,0%);stroke-opacity:1;stroke-miterlimit:10;" d="M 29.70725 28.347125 C 29.70725 29.097125 29.097875 29.7065 28.347875 29.7065 C 27.593969 29.7065 26.984594 29.097125 26.984594 28.347125 C 26.984594 27.597125 27.593969 26.98775 28.347875 26.98775 C 29.097875 26.98775 29.70725 27.597125 29.70725 28.347125 Z M 29.70725 28.347125 " transform="matrix(1,0,0,-1,0.199,102.519)"/>
<g clip-path="url(#clip5)" clip-rule="nonzero">
<path style="fill:none;stroke-width:0.3985;stroke-linecap:butt;stroke-linejoin:miter;stroke:rgb(0%,0%,0%);stroke-opacity:1;stroke-miterlimit:10;" d="M 0.00021875 56.694781 L 14.172094 56.694781 M 14.172094 56.694781 L 56.695531 56.694781 " transform="matrix(1,0,0,-1,0.199,102.519)"/>
</g>
<path style="fill-rule:nonzero;fill:rgb(0%,0%,0%);fill-opacity:1;stroke-width:0.3985;stroke-linecap:butt;stroke-linejoin:miter;stroke:rgb(0%,0%,0%);stroke-opacity:1;stroke-miterlimit:10;" d="M 29.70725 56.694781 C 29.70725 57.444781 29.097875 58.054156 28.347875 58.054156 C 27.593969 58.054156 26.984594 57.444781 26.984594 56.694781 C 26.984594 55.940875 27.593969 55.3315 28.347875 55.3315 C 29.097875 55.3315 29.70725 55.940875 29.70725 56.694781 Z M 29.70725 56.694781 " transform="matrix(1,0,0,-1,0.199,102.519)"/>
<g clip-path="url(#clip6)" clip-rule="nonzero">
<path style="fill:none;stroke-width:0.3985;stroke-linecap:butt;stroke-linejoin:miter;stroke:rgb(0%,0%,0%);stroke-opacity:1;stroke-miterlimit:10;" d="M 0.00021875 85.038531 L 14.172094 85.038531 M 14.172094 85.038531 L 56.695531 85.038531 " transform="matrix(1,0,0,-1,0.199,102.519)"/>
</g>
<path style="fill-rule:nonzero;fill:rgb(0%,0%,0%);fill-opacity:1;stroke-width:0.3985;stroke-linecap:butt;stroke-linejoin:miter;stroke:rgb(0%,0%,0%);stroke-opacity:1;stroke-miterlimit:10;" d="M 29.70725 85.038531 C 29.70725 85.792437 29.097875 86.401812 28.347875 86.401812 C 27.593969 86.401812 26.984594 85.792437 26.984594 85.038531 C 26.984594 84.288531 27.593969 83.679156 28.347875 83.679156 C 29.097875 83.679156 29.70725 84.288531 29.70725 85.038531 Z M 29.70725 85.038531 " transform="matrix(1,0,0,-1,0.199,102.519)"/>
</g>
</svg>

<svg xmlns="http://www.w3.org/2000/svg" xmlns:xlink="http://www.w3.org/1999/xlink" width="76.121" height="138.772" viewBox="0 0 57.091 104.079"><defs><clipPath id="a"><path d="M0 0h57.09v104.078H0Zm0 0"/></clipPath><clipPath id="g"><path d="M0 102h57.09v1H0Zm0 0"/></clipPath><clipPath id="h"><path d="M21 95h15v9.078H21Zm0 0"/></clipPath><clipPath id="i"><path d="M0 73h57.09v2H0Zm0 0"/></clipPath><clipPath id="j"><path d="M0 45h57.09v2H0Zm0 0"/></clipPath><clipPath id="k"><path d="M0 17h57.09v1H0Zm0 0"/></clipPath><symbol overflow="visible" id="b"><path style="stroke:none" d="M.86-7.078 3.39-.875l2.516-6.203h.735L3.703 0h-.625L.125-7.078Zm0 0"/></symbol><symbol overflow="visible" id="c"><path style="stroke:none" d="M.266-1.188c0-.257.07-.484.218-.671.145-.196.348-.348.61-.454a2.62 2.62 0 0 1 .922-.156c.195 0 .406.024.625.063.218.031.414.078.593.14v-.359c0-.344-.105-.617-.312-.828-.211-.207-.496-.313-.86-.313-.23 0-.453.043-.671.125a3.954 3.954 0 0 0-.672.36l-.203-.39c.27-.177.535-.313.796-.407.258-.094.524-.14.797-.14.508 0 .91.148 1.204.437.3.293.453.695.453 1.203v1.922c0 .074.015.133.046.172.032.03.083.046.157.046V0c-.063.008-.117.016-.156.016a.184.184 0 0 1-.094 0c-.137 0-.242-.04-.313-.125a.407.407 0 0 1-.094-.25l-.015-.313a1.86 1.86 0 0 1-.735.563 2.25 2.25 0 0 1-.89.187c-.274 0-.516-.058-.734-.172a1.367 1.367 0 0 1-.5-.453 1.222 1.222 0 0 1-.172-.64Zm2.78.313c.052-.07.095-.14.126-.203a.43.43 0 0 0 .062-.203v-.594a3.015 3.015 0 0 0-.578-.156 2.848 2.848 0 0 0-.578-.063c-.387 0-.7.078-.937.235a.691.691 0 0 0-.36.625c0 .156.035.304.11.437.082.137.203.25.359.344.156.086.336.125.547.125.258 0 .5-.05.719-.156.226-.102.406-.235.53-.391Zm0 0"/></symbol><symbol overflow="visible" id="d"><path style="stroke:none" d="M2.625.078a1.73 1.73 0 0 1-.906-.25 1.83 1.83 0 0 1-.64-.64V0H.593v-5.813h.547v2.532c.187-.281.41-.504.671-.672.258-.176.563-.266.907-.266.289 0 .55.063.781.188.227.117.426.277.594.484.164.2.289.43.375.688.082.261.125.527.125.796 0 .293-.055.57-.157.829A2.08 2.08 0 0 1 3.405-.093c-.242.113-.5.171-.781.171ZM2.5-.39c.227 0 .438-.046.625-.14a1.56 1.56 0 0 0 .484-.375c.145-.156.254-.332.329-.531A1.902 1.902 0 0 0 3.86-2.89a1.623 1.623 0 0 0-.516-.626 1.311 1.311 0 0 0-.781-.234 1.23 1.23 0 0 0-.594.156c-.18.094-.34.219-.485.375a2.4 2.4 0 0 0-.343.516v1.281a.91.91 0 0 0 .156.406c.094.125.207.235.344.329.132.085.273.156.421.218.157.055.301.078.438.078Zm0 0"/></symbol><symbol overflow="visible" id="e"><path style="stroke:none" d="M2.406.078c-.312 0-.594-.058-.844-.172a2.06 2.06 0 0 1-.656-.469 2.263 2.263 0 0 1-.594-1.53c0-.384.086-.739.266-1.063.176-.332.422-.594.735-.781A2.055 2.055 0 0 1 2.39-4.22c.382 0 .722.09 1.015.266.301.18.524.418.672.719l-.531.171a1.22 1.22 0 0 0-.485-.5 1.353 1.353 0 0 0-.703-.187c-.273 0-.523.074-.75.219a1.57 1.57 0 0 0-.546.594c-.137.25-.204.53-.204.843 0 .313.067.602.204.86.144.25.328.453.546.609.227.156.485.234.766.234.176 0 .348-.03.516-.093.164-.07.312-.16.437-.266a.873.873 0 0 0 .25-.36l.547.157c-.074.2-.2.375-.375.531-.18.156-.383.281-.61.375a2.18 2.18 0 0 1-.734.125Zm0 0"/></symbol><symbol overflow="visible" id="f"><path style="stroke:none" d="M4.094 0h-.547v-2.313c0-.488-.074-.847-.219-1.078-.148-.226-.371-.343-.672-.343-.219 0-.433.054-.64.156a1.89 1.89 0 0 0-.532.422c-.156.18-.273.383-.343.61V0H.594v-4.156h.5v.937c.113-.195.258-.367.437-.515.176-.157.38-.274.61-.36.226-.082.468-.125.718-.125.227 0 .422.043.579.125a.974.974 0 0 1 .374.36c.094.156.16.343.204.562.05.219.078.465.078.735Zm0 0"/></symbol></defs><g clip-path="url(#a)"><path style="stroke:none;fill-rule:nonzero;fill:#fff;fill-opacity:1" d="M0 104.078V0h57.094v104.078Zm0 0"/></g><use xlink:href="#b" x="22.742" y="10.394" style="fill:#000;fill-opacity:1"/><use xlink:href="#c" x="29.507" y="11.888" style="fill:#000;fill-opacity:1"/><path style="fill:none;stroke-width:.398;stroke-linecap:butt;stroke-linejoin:miter;stroke:#000;stroke-opacity:1;stroke-miterlimit:10" d="M0 0h11.606" transform="matrix(1 0 0 -1 22.742 13.363)"/><use xlink:href="#b" x="22.456" y="37.848" style="fill:#000;fill-opacity:1"/><use xlink:href="#d" x="29.22" y="40.235" style="fill:#000;fill-opacity:1"/><path style="fill:none;stroke-width:.398;stroke-linecap:butt;stroke-linejoin:miter;stroke:#000;stroke-opacity:1;stroke-miterlimit:10" d="M.001-.002h12.18" transform="matrix(1 0 0 -1 22.456 41.709)"/><use xlink:href="#b" x="22.727" y="67.087" style="fill:#000;fill-opacity:1"/><use xlink:href="#e" x="29.491" y="68.581" style="fill:#000;fill-opacity:1"/><path style="fill:none;stroke-width:.398;stroke-linecap:butt;stroke-linejoin:miter;stroke:#000;stroke-opacity:1;stroke-miterlimit:10" d="M0 0h11.636" transform="matrix(1 0 0 -1 22.727 70.055)"/><use xlink:href="#b" x="22.591" y="95.513" style="fill:#000;fill-opacity:1"/><use xlink:href="#f" x="29.356" y="97.007" style="fill:#000;fill-opacity:1"/><path style="fill:none;stroke-width:.398;stroke-linecap:butt;stroke-linejoin:miter;stroke:#000;stroke-opacity:1;stroke-miterlimit:10" d="M-.001 0h11.91" transform="matrix(1 0 0 -1 22.591 98.402)"/><g clip-path="url(#g)"><path style="fill:none;stroke-width:.3985;stroke-linecap:butt;stroke-linejoin:miter;stroke:#000;stroke-opacity:1;stroke-miterlimit:10" d="M0 0h14.172m0 0h42.524" transform="matrix(1 0 0 -1 .199 102.519)"/></g><path style="stroke:none;fill-rule:nonzero;fill:#000;fill-opacity:1" d="M29.906 102.52a1.36 1.36 0 1 0-2.72.001 1.36 1.36 0 0 0 2.72-.001Zm0 0"/><g clip-path="url(#h)"><path style="fill:none;stroke-width:.3985;stroke-linecap:butt;stroke-linejoin:miter;stroke:#000;stroke-opacity:1;stroke-miterlimit:10" d="M29.707 0a1.36 1.36 0 1 1-2.72-.002 1.36 1.36 0 0 1 2.72.001Zm0 0" transform="matrix(1 0 0 -1 .199 102.519)"/></g><g clip-path="url(#i)"><path style="fill:none;stroke-width:.3985;stroke-linecap:butt;stroke-linejoin:miter;stroke:#000;stroke-opacity:1;stroke-miterlimit:10" d="M0 28.347h14.172m0 0h42.524" transform="matrix(1 0 0 -1 .199 102.519)"/></g><path style="fill-rule:nonzero;fill:#000;fill-opacity:1;stroke-width:.3985;stroke-linecap:butt;stroke-linejoin:miter;stroke:#000;stroke-opacity:1;stroke-miterlimit:10" d="M29.707 28.347a1.36 1.36 0 1 1-2.72-.002 1.36 1.36 0 0 1 2.72.002Zm0 0" transform="matrix(1 0 0 -1 .199 102.519)"/><g clip-path="url(#j)"><path style="fill:none;stroke-width:.3985;stroke-linecap:butt;stroke-linejoin:miter;stroke:#000;stroke-opacity:1;stroke-miterlimit:10" d="M0 56.695h14.172m0 0h42.524" transform="matrix(1 0 0 -1 .199 102.519)"/></g><path style="fill-rule:nonzero;fill:#000;fill-opacity:1;stroke-width:.3985;stroke-linecap:butt;stroke-linejoin:miter;stroke:#000;stroke-opacity:1;stroke-miterlimit:10" d="M29.707 56.695a1.36 1.36 0 1 1-2.72-.002 1.36 1.36 0 0 1 2.72.002Zm0 0" transform="matrix(1 0 0 -1 .199 102.519)"/><g clip-path="url(#k)"><path style="fill:none;stroke-width:.3985;stroke-linecap:butt;stroke-linejoin:miter;stroke:#000;stroke-opacity:1;stroke-miterlimit:10" d="M0 85.039h14.172m0 0h42.524" transform="matrix(1 0 0 -1 .199 102.519)"/></g><path style="fill-rule:nonzero;fill:#000;fill-opacity:1;stroke-width:.3985;stroke-linecap:butt;stroke-linejoin:miter;stroke:#000;stroke-opacity:1;stroke-miterlimit:10" d="M29.707 85.039a1.361 1.361 0 1 1-2.722.004 1.361 1.361 0 0 1 2.722-.004Zm0 0" transform="matrix(1 0 0 -1 .199 102.519)"/></svg>
